src/main/webapp/scripts/pdfjs/v54530/web/images/altText_disclaimer.svg

<svg fill="none" height="16" viewBox="0 0 17 16" width="17" xmlns="http://www.w3.org/2000/svg"><path clip-rule="evenodd" d="m3.49073 1.3015-.182.849c-.01524.07196-.05104.13794-.10305.18995-.052.05201-.11799.08781-.18995.10305l-.849.182c-.402.087-.402.661 0 .747l.849.183c.07196.01524.13795.05104.18995.10305.05201.05201.08781.11799.10305.18995l.182.849c.087.402.661.402.747 0l.183-.849c.01525-.07196.05104-.13794.10305-.18995s.118-.08781.18995-.10305l.848-.183c.402-.087.402-.661 0-.747l-.849-.182c-.0719-.01536-.13782-.0512-.18981-.10319s-.08783-.11791-.10319-.18981l-.182-.849c-.087-.402-.661-.402-.747 0zm7.37397 12.698c-.3794.0061-.7489-.1213-1.04403-.3598-.29514-.2384-.4972-.573-.57094-.9452l-.357-1.667c-.05597-.2588-.18535-.4959-.37264-.683s-.42455-.3163-.68336-.372l-1.667-.357c-.781-.169-1.305-.818-1.305-1.616s.524-1.447 1.305-1.615l1.667-.357c.25878-.05615.49594-.18557.68319-.37282.18724-.18724.31666-.4244.37281-.68318l.358-1.667c.167-.781.81597-1.305 1.61397-1.305s1.447.524 1.615 1.305l.357 1.667c.114.528.528.942 1.056 1.055l1.667.357c.781.169 1.305.818 1.305 1.616s-.524 1.447-1.305 1.615l-1.667.357c-.259.056-.4964.1855-.6837.373-.1873.1874-.3165.4249-.3723.684l-.358 1.666c-.0733.3722-.2751.7069-.5701.9454-.2951.2385-.6645.3658-1.0439.3596zm0-10.75c-.098 0-.331.03-.392.316l-.358 1.668c-.1066.49427-.35354.94732-.71109 1.30487-.35755.35756-.8106.60446-1.30488.71113l-1.667.357c-.286.062-.317.295-.317.393s.031.331.317.393l1.667.357c.49428.10667.94733.35357 1.30488.71112s.60449.81058.71109 1.30488l.358 1.668c.061.286.294.316.392.316s.331-.03.392-.316l.358-1.667c.1065-.4945.3534-.94772.7109-1.30547.3576-.35774.8107-.60479 1.3051-.71153l1.667-.357c.286-.062.317-.295.317-.393s-.031-.331-.317-.393l-1.667-.357c-.4942-.10667-.9473-.35357-1.3048-.71113-.3576-.35755-.6045-.8106-.7112-1.30487l-.358-1.668c-.061-.286-.294-.316-.392-.316zm-7.55597 8.901.182-.849c.086-.402.66-.402.747 0l.182.849c.01536.0719.0512.1378.10319.1898s.11791.0878.18981.1032l.849.182c.402.086.402.66 0 .747l-.849.182c-.0719.0154-.13782.0512-.18981.1032s-.08783.1179-.10319.1898l-.182.849c-.086.402-.66.402-.747 0l-.182-.849c-.01536-.0719-.05119-.1378-.10318-.1898s-.11791-.0878-.18982-.1032l-.849-.182c-.402-.086-.402-.66 0-.747l.849-.182c.07196-.0152.13795-.051.18995-.103.05201-.0521.08781-.118.10305-.19z" fill="#000" fill-rule="evenodd"/></svg>

<svg width="17" height="16" viewBox="0 0 17 16" fill="none" xmlns="http://www.w3.org/2000/svg">
<path fill-rule="evenodd" clip-rule="evenodd" d="M3.49073 1.3015L3.30873 2.1505C3.29349 2.22246 3.25769 2.28844 3.20568 2.34045C3.15368 2.39246 3.08769 2.42826 3.01573 2.4435L2.16673 2.6255C1.76473 2.7125 1.76473 3.2865 2.16673 3.3725L3.01573 3.5555C3.08769 3.57074 3.15368 3.60654 3.20568 3.65855C3.25769 3.71056 3.29349 3.77654 3.30873 3.8485L3.49073 4.6975C3.57773 5.0995 4.15173 5.0995 4.23773 4.6975L4.42073 3.8485C4.43598 3.77654 4.47177 3.71056 4.52378 3.65855C4.57579 3.60654 4.64178 3.57074 4.71373 3.5555L5.56173 3.3725C5.96373 3.2855 5.96373 2.7115 5.56173 2.6255L4.71273 2.4435C4.64083 2.42814 4.57491 2.3923 4.52292 2.34031C4.47093 2.28832 4.43509 2.2224 4.41973 2.1505L4.23773 1.3015C4.15073 0.8995 3.57673 0.8995 3.49073 1.3015ZM10.8647 13.9995C10.4853 14.0056 10.1158 13.8782 9.82067 13.6397C9.52553 13.4013 9.32347 13.0667 9.24973 12.6945L8.89273 11.0275C8.83676 10.7687 8.70738 10.5316 8.52009 10.3445C8.3328 10.1574 8.09554 10.0282 7.83673 9.9725L6.16973 9.6155C5.38873 9.4465 4.86473 8.7975 4.86473 7.9995C4.86473 7.2015 5.38873 6.5525 6.16973 6.3845L7.83673 6.0275C8.09551 5.97135 8.33267 5.84193 8.51992 5.65468C8.70716 5.46744 8.83658 5.23028 8.89273 4.9715L9.25073 3.3045C9.41773 2.5235 10.0667 1.9995 10.8647 1.9995C11.6627 1.9995 12.3117 2.5235 12.4797 3.3045L12.8367 4.9715C12.9507 5.4995 13.3647 5.9135 13.8927 6.0265L15.5597 6.3835C16.3407 6.5525 16.8647 7.2015 16.8647 7.9995C16.8647 8.7975 16.3407 9.4465 15.5597 9.6145L13.8927 9.9715C13.6337 10.0275 13.3963 10.157 13.209 10.3445C13.0217 10.5319 12.8925 10.7694 12.8367 11.0285L12.4787 12.6945C12.4054 13.0667 12.2036 13.4014 11.9086 13.6399C11.6135 13.8784 11.2441 14.0057 10.8647 13.9995ZM10.8647 3.2495C10.7667 3.2495 10.5337 3.2795 10.4727 3.5655L10.1147 5.2335C10.0081 5.72777 9.76116 6.18082 9.40361 6.53837C9.04606 6.89593 8.59301 7.14283 8.09873 7.2495L6.43173 7.6065C6.14573 7.6685 6.11473 7.9015 6.11473 7.9995C6.11473 8.0975 6.14573 8.3305 6.43173 8.3925L8.09873 8.7495C8.59301 8.85617 9.04606 9.10307 9.40361 9.46062C9.76116 9.81817 10.0081 10.2712 10.1147 10.7655L10.4727 12.4335C10.5337 12.7195 10.7667 12.7495 10.8647 12.7495C10.9627 12.7495 11.1957 12.7195 11.2567 12.4335L11.6147 10.7665C11.7212 10.272 11.9681 9.81878 12.3256 9.46103C12.6832 9.10329 13.1363 8.85624 13.6307 8.7495L15.2977 8.3925C15.5837 8.3305 15.6147 8.0975 15.6147 7.9995C15.6147 7.9015 15.5837 7.6685 15.2977 7.6065L13.6307 7.2495C13.1365 7.14283 12.6834 6.89593 12.3259 6.53837C11.9683 6.18082 11.7214 5.72777 11.6147 5.2335L11.2567 3.5655C11.1957 3.2795 10.9627 3.2495 10.8647 3.2495ZM3.30873 12.1505L3.49073 11.3015C3.57673 10.8995 4.15073 10.8995 4.23773 11.3015L4.41973 12.1505C4.43509 12.2224 4.47093 12.2883 4.52292 12.3403C4.57491 12.3923 4.64083 12.4281 4.71273 12.4435L5.56173 12.6255C5.96373 12.7115 5.96373 13.2855 5.56173 13.3725L4.71273 13.5545C4.64083 13.5699 4.57491 13.6057 4.52292 13.6577C4.47093 13.7097 4.43509 13.7756 4.41973 13.8475L4.23773 14.6965C4.15173 15.0985 3.57773 15.0985 3.49073 14.6965L3.30873 13.8475C3.29337 13.7756 3.25754 13.7097 3.20555 13.6577C3.15356 13.6057 3.08764 13.5699 3.01573 13.5545L2.16673 13.3725C1.76473 13.2865 1.76473 12.7125 2.16673 12.6255L3.01573 12.4435C3.08769 12.4283 3.15368 12.3925 3.20568 12.3405C3.25769 12.2884 3.29349 12.2225 3.30873 12.1505Z" fill="black"/>
</svg>
